X: 42251
T: We'll Aye Gang Back To Yon Town
R: reel
M: 4/4
K: Gminor
|:F|DGGF GA d2|cdcA F2 FC|DGGF GB g2|fdcA G2G:|
c|dgga bagf|cffg agfc|dgga bagf|dfcA G2 GA|
Ggga bagf|cffg agfc|bgaf gefd|efcA G2 G|

